X:1
T:Golden Slippers
M:4/4
L:1/8
K:G
 GA| B2 B2 BAG-A| B2 B2 G2 GA| B2 BB cB BB| B2 A2 A2| FG| A2 A2 A2 FG|\
 A2 A2 A2 FG| AA cc BB AA| G6| GA| B2 B2B-A GA| B2 B2 G2G-A| BBB-Bc-B BB|\
 B2 A2 A2|| FG| A2 A2 A2 FG| A2 A2 A2 FG| AA cc BB AA| G6| E2| D6 G2|\
 B2 A2 G2 F2| E6 A2| c2 B2 A2 G2| F2 F2 FF GG| A2 A2 A2 F2| G3 F G2 A2|\
 B6| z2| D6 G2| B2 A2 G2 F2| E6 A2| c2 B2 A2 G2| F2 F2 FF GG| A2 A2 c4|\
 B B2 c B2 A2| G6||
